dist/img/svg/ic_phone.svg

<svg width="24" height="24" viewBox="0 0 24 24" fill="none" xmlns="http://www.w3.org/2000/svg">
<path d="M7.57954 1.964V1.96498C8.25738 1.96068 8.91455 2.20006 9.42915 2.64174C9.88156 3.03005 10.1966 3.55098 10.3325 4.12709L10.3793 4.37709L10.3813 4.38686L10.4243 4.68275C10.5353 5.37188 10.7139 6.04879 10.9584 6.70326H10.9594C11.1487 7.20575 11.1888 7.75239 11.0766 8.27748C10.9644 8.80231 10.7043 9.28391 10.3266 9.66518L10.3227 9.66908L9.72993 10.2599C10.7679 11.8645 12.1363 13.2299 13.7446 14.2658L14.3393 13.673L14.3432 13.6691L14.4916 13.5333C14.847 13.2296 15.2736 13.0188 15.7329 12.921C16.2569 12.8095 16.8023 12.8496 17.3041 13.0372H17.3051C17.9619 13.2818 18.6408 13.4614 19.3325 13.5724L19.6293 13.6154L19.6381 13.6163L19.8911 13.6642C20.4732 13.8013 20.9991 14.121 21.3891 14.5802C21.8296 15.0991 22.066 15.7605 22.0551 16.4406V19.1456L22.0522 19.2921C22.0358 19.6332 21.9571 19.9688 21.8198 20.2824C21.6628 20.6406 21.4324 20.9616 21.144 21.2257C20.8556 21.4898 20.5155 21.6915 20.145 21.8165C19.8209 21.9259 19.48 21.975 19.1391 21.9621L18.9926 21.9523L18.975 21.9513C16.035 21.6325 13.2104 20.6296 10.729 19.0236V19.0226C8.42433 17.5594 6.4696 15.6091 5.00337 13.3087L4.70747 12.838C3.3612 10.6238 2.486 8.15655 2.13618 5.58998L2.0688 5.0392C2.06825 5.03408 2.06828 5.0287 2.06782 5.02357C2.03266 4.63525 2.07889 4.2436 2.20356 3.87416C2.32822 3.50485 2.52842 3.16569 2.79145 2.87807C3.05458 2.59038 3.37516 2.36052 3.73188 2.20326C4.08852 2.0461 4.474 1.96437 4.86372 1.964H7.57954ZM4.78071 3.96889C4.69722 3.97771 4.61556 3.9994 4.53852 4.03334C4.43551 4.07875 4.34274 4.14491 4.26704 4.22768C4.1914 4.31041 4.13382 4.40795 4.09809 4.51381C4.06406 4.6147 4.05055 4.72127 4.05805 4.82729L4.11762 5.32045C4.43036 7.61436 5.21298 9.81962 6.41645 11.799L6.6811 12.2199L6.68501 12.2267L5.84223 12.7638L6.68501 12.2277C7.91366 14.1573 9.52772 15.8118 11.4243 17.089L11.8081 17.339L11.8159 17.3439L12.2348 17.6076C14.349 18.8897 16.7215 19.6931 19.185 19.9611C19.2935 19.9692 19.4023 19.9558 19.5053 19.921C19.6123 19.8849 19.7104 19.8271 19.7934 19.7511C19.8765 19.6751 19.9427 19.5824 19.9877 19.4796C20.0327 19.377 20.0556 19.2663 20.0551 19.1544V16.4406C20.0551 16.4323 20.0559 16.4235 20.0561 16.4152C20.0609 16.2182 19.9928 16.026 19.8647 15.8751C19.738 15.7259 19.5611 15.6269 19.3666 15.5978C18.4237 15.4735 17.498 15.2431 16.6069 14.9113H16.6049C16.4598 14.8568 16.3016 14.8449 16.1499 14.8771C15.998 14.9094 15.8585 14.9843 15.7485 15.0929L14.603 16.2365C14.2848 16.5537 13.7936 16.6194 13.4028 16.3976C10.9808 15.0231 8.97558 13.0213 7.59809 10.6037C7.37491 10.2119 7.44109 9.71901 7.7602 9.40053L8.90571 8.25697C9.01415 8.14734 9.08941 8.00965 9.12153 7.85951C9.15367 7.70911 9.14159 7.55239 9.08735 7.40834L9.08637 7.40639C8.75352 6.51615 8.5224 5.59066 8.3979 4.64857H8.39692C8.36776 4.45902 8.27289 4.28504 8.12641 4.15932C7.97745 4.03152 7.78639 3.96207 7.5893 3.964H4.86567L4.78071 3.96889ZM20.3491 2.256C20.74 1.86597 21.373 1.86708 21.7631 2.25795C22.1532 2.64885 22.153 3.28188 21.7622 3.67201L18.0424 7.38393H21.0551C21.6074 7.38393 22.0551 7.83164 22.0551 8.38393C22.0549 8.93604 21.6073 9.38393 21.0551 9.38393H15.6254C15.0733 9.38393 14.6256 8.93604 14.6254 8.38393V2.964C14.6255 2.41176 15.0732 1.964 15.6254 1.964C16.1776 1.96406 16.6254 2.41179 16.6254 2.964V5.97279L20.3491 2.256Z" fill="white"/>
</svg>

<svg width="24" height="24" xmlns="http://www.w3.org/2000/svg"><path d="M7.58 1.964v.001a2.812 2.812 0 012.752 2.162l.047.25.002.01.043.296c.111.689.29 1.366.534 2.02h.001a2.804 2.804 0 01-.632 2.962l-.004.004-.593.59a13.463 13.463 0 004.015 4.007l.594-.593.004-.004.149-.136a2.812 2.812 0 012.812-.496h.001a10.64 10.64 0 002.027.535l.297.043.01.001.252.048a2.81 2.81 0 012.164 2.777v2.705l-.003.146a2.805 2.805 0 01-2.913 2.67l-.146-.01h-.018a18.934 18.934 0 01-8.246-2.928v-.001a18.63 18.63 0 01-5.726-5.714l-.296-.471a18.852 18.852 0 01-2.57-7.248l-.068-.55-.001-.016a2.805 2.805 0 012.796-3.06H7.58zm-2.8 2.005a.812.812 0 00-.682.545.803.803 0 00-.04.313l.06.493A16.853 16.853 0 006.416 11.8l.265.42.004.008-.843.537.843-.536a16.63 16.63 0 004.74 4.861l.383.25.008.005.419.264a16.935 16.935 0 006.95 2.353.811.811 0 00.87-.807v-2.713l.001-.026a.804.804 0 00-.69-.817 12.645 12.645 0 01-2.76-.687h-.001a.814.814 0 00-.857.182l-1.145 1.143a1 1 0 01-1.2.162 15.466 15.466 0 01-5.805-5.794A1 1 0 017.76 9.4l1.146-1.144a.805.805 0 00.181-.849v-.002a12.584 12.584 0 01-.69-2.757.805.805 0 00-.808-.685H4.866l-.085.005zm15.57-1.713a1 1 0 011.412 1.416l-3.72 3.712h3.013a1 1 0 110 2h-5.43a1 1 0 01-1-1v-5.42a1 1 0 012 0v3.009l3.724-3.717z"/></svg>
